icons/audible.svg

<?xml version="1.0" encoding="UTF-8" standalone="no"?>
<svg
   xmlns:dc="http://purl.org/dc/elements/1.1/"
   xmlns:cc="http://creativecommons.org/ns#"
   xmlns:rdf="http://www.w3.org/1999/02/22-rdf-syntax-ns#"
   xmlns:svg="http://www.w3.org/2000/svg"
   xmlns="http://www.w3.org/2000/svg"
   xmlns:sodipodi="http://sodipodi.sourceforge.net/DTD/sodipodi-0.dtd"
   xmlns:inkscape="http://www.inkscape.org/namespaces/inkscape"
   id="svg8"
   version="1.1"
   viewBox="0 0 79.374998 79.375002"
   height="300"
   width="300"
   sodipodi:docname="audible.svg"
   inkscape:version="0.92.4 (5da689c313, 2019-01-14)">
  <sodipodi:namedview
     pagecolor="#ffffff"
     bordercolor="#666666"
     borderopacity="1"
     objecttolerance="10"
     gridtolerance="10"
     guidetolerance="10"
     inkscape:pageopacity="0"
     inkscape:pageshadow="2"
     inkscape:window-width="788"
     inkscape:window-height="686"
     id="namedview7"
     showgrid="false"
     borderlayer="true"
     inkscape:showpageshadow="false"
     inkscape:zoom="0.78666667"
     inkscape:cx="127.75424"
     inkscape:cy="150"
     inkscape:window-x="1061"
     inkscape:window-y="271"
     inkscape:window-maximized="0"
     inkscape:current-layer="svg8" />
  <defs
     id="defs2" />
  <metadata
     id="metadata5">
    <rdf:RDF>
      <cc:Work
         rdf:about="">
        <dc:format>image/svg+xml</dc:format>
        <dc:type
           rdf:resource="http://purl.org/dc/dcmitype/StillImage" />
        <dc:title></dc:title>
      </cc:Work>
    </rdf:RDF>
  </metadata>
  <g
     transform="matrix(0.65391925,0,0,0.65391925,13.7655,-129.25793)"
     id="layer1">
    <path
       id="rect843"
       transform="matrix(0.26458333,0,0,0.26458333,0,217.62499)"
       d="m 150.20898,69.609375 c -9.12678,0.01134 -11.54547,0.12545 -16.32617,0.771484 -15.42993,2.085619 -28.62203,5.982604 -41.800779,12.345703 -7.19681,3.474823 -10.572975,5.393025 -17.039062,9.685547 -7.686792,5.102892 -13.634188,10.008311 -20.777344,17.134771 -6.599573,6.58416 -10.306582,10.89091 -14.935547,17.35742 -3.846861,5.37396 -3.931775,5.75072 -0.466797,2.0664 19.186519,-20.40109 45.05265,-34.322286 72.669919,-39.111325 7.0858,-1.228724 13.63287,-1.754738 21.83985,-1.753906 21.19782,0.002 39.93151,4.500265 59.01172,14.169921 18.76372,9.50922 35.09853,23.32999 47.91015,40.53516 1.42893,1.91898 2.7752,3.42058 2.99219,3.33789 0.21698,-0.0828 5.22584,-3.1837 11.13086,-6.89063 5.90502,-3.70688 10.73969,-6.8654 10.74414,-7.01953 0.0155,-0.5393 -4.73939,-7.24392 -8.36523,-11.79492 -4.69037,-5.88714 -14.9835,-16.18137 -20.87696,-20.878907 -18.70463,-14.908951 -39.68418,-24.373741 -62.60547,-28.246094 -8.88669,-1.501341 -11.88142,-1.722968 -23.10547,-1.708984 z m 0.14454,42.478515 c -5.00618,-7.5e-4 -9.97497,0.21269 -12.72852,0.64063 -26.98326,4.19278 -49.667924,18.19532 -64.998047,40.12304 -1.679187,2.40185 -1.501106,2.30779 3.304688,-1.73437 5.96694,-5.01884 13.542345,-9.7437 20.976562,-13.08594 34.227687,-15.38778 74.202267,-7.8301 101.242187,19.14258 3.27718,3.26902 8.30654,8.99116 9.29883,10.58008 0.22273,0.35678 0.49444,0.64843 0.60351,0.64843 0.10908,0 4.93148,-2.9925 10.7168,-6.64843 5.78532,-3.65598 10.55998,-6.83097 10.61133,-7.05664 0.18161,-0.79828 -6.5696,-9.26503 -11.12305,-13.94922 -15.04597,-15.478 -33.38742,-24.83053 -54.95312,-28.01758 -2.90101,-0.42873 -7.945,-0.64183 -12.95117,-0.64258 z m -146.4062544,22.95508 0.089844,12.64062 0.089844,12.64063 73.1250004,46.20703 c 40.219506,25.41407 73.203336,46.20714 73.296876,46.20703 0.0935,-1.1e-4 33.07736,-20.79292 73.29687,-46.20703 l 73.12696,-46.20898 0.0879,-12.63868 0.0898,-12.64062 -1.78906,1.13867 c -0.98439,0.62619 -33.96984,21.46519 -73.30078,46.30859 L 150.54883,227.66016 79.039062,182.49023 C 39.70812,157.64683 6.7226698,136.80783 5.7382812,136.18164 Z M 150.69922,154.51562 c -3.6374,0.0253 -7.57944,0.30911 -10.01367,0.78907 -11.90602,2.34807 -23.01978,8.92505 -30.65039,18.13867 -1.47404,1.77982 -2.61954,3.29454 -2.54688,3.36719 0.0727,0.0726 0.95059,-0.39074 1.95313,-1.03125 4.8864,-3.12212 11.06532,-5.56549 16.58789,-6.5586 3.80937,-0.68504 11.23018,-0.68279 15.05273,0.004 10.98208,1.97439 21.58902,8.50856 29.52344,18.18555 1.39733,1.70422 2.56756,3.09961 2.59961,3.09961 0.0321,0 4.61973,-2.8841 10.19531,-6.40821 5.57559,-3.5241 10.19056,-6.56188 10.25391,-6.75195 0.17015,-0.51046 -2.55307,-3.99452 -5.4043,-6.91602 -8.53093,-8.7411 -19.70632,-14.26065 -31.72461,-15.66992 -1.57176,-0.18431 -3.64373,-0.26321 -5.82617,-0.24805 z"
       style="opacity:1;fill:#ffffff;fill-opacity:1;fill-rule:evenodd;stroke:#ffffff;stroke-width:0;stroke-linecap:square;stroke-linejoin:round;stroke-miterlimit:4;stroke-dasharray:none;stroke-opacity:1;paint-order:normal"
       inkscape:connector-curvature="0" />
  </g>
</svg>

<?xml version="1.0" encoding="UTF-8" standalone="no"?>
<svg
   xmlns:dc="http://purl.org/dc/elements/1.1/"
   xmlns:cc="http://creativecommons.org/ns#"
   xmlns:rdf="http://www.w3.org/1999/02/22-rdf-syntax-ns#"
   xmlns:svg="http://www.w3.org/2000/svg"
   xmlns="http://www.w3.org/2000/svg"
   id="svg8"
   version="1.1"
   viewBox="0 0 79.374998 79.375002"
   height="300"
   width="300">
  <defs
     id="defs2" />
  <metadata
     id="metadata5">
    <rdf:RDF>
      <cc:Work
         rdf:about="">
        <dc:format>image/svg+xml</dc:format>
        <dc:type
           rdf:resource="http://purl.org/dc/dcmitype/StillImage" />
        <dc:title></dc:title>
      </cc:Work>
    </rdf:RDF>
  </metadata>
  <g
     transform="translate(0,-217.62499)"
     id="layer1">
    <path
       id="rect843"
       transform="matrix(0.26458333,0,0,0.26458333,0,217.62499)"
       d="M 150.20898 69.609375 C 141.0822 69.620714 138.66351 69.734825 133.88281 70.380859 C 118.45288 72.466478 105.26078 76.363463 92.082031 82.726562 C 84.885221 86.201385 81.509056 88.119587 75.042969 92.412109 C 67.356177 97.515001 61.408781 102.42042 54.265625 109.54688 C 47.666052 116.13104 43.959043 120.43779 39.330078 126.9043 C 35.483217 132.27826 35.398303 132.65502 38.863281 128.9707 C 58.0498 108.56961 83.915931 94.648414 111.5332 89.859375 C 118.619 88.630651 125.16607 88.104637 133.37305 88.105469 C 154.57087 88.10751 173.30456 92.605734 192.38477 102.27539 C 211.14849 111.78461 227.4833 125.60538 240.29492 142.81055 C 241.72385 144.72953 243.07012 146.23113 243.28711 146.14844 C 243.50409 146.06567 248.51295 142.96474 254.41797 139.25781 C 260.32299 135.55093 265.15766 132.39241 265.16211 132.23828 C 265.17761 131.69898 260.42272 124.99436 256.79688 120.44336 C 252.10651 114.55622 241.81338 104.26199 235.91992 99.564453 C 217.21529 84.655502 196.23574 75.190712 173.31445 71.318359 C 164.42776 69.817018 161.43303 69.595391 150.20898 69.609375 z M 150.35352 112.08789 C 145.34734 112.08714 140.37855 112.30058 137.625 112.72852 C 110.64174 116.9213 87.957076 130.92384 72.626953 152.85156 C 70.947766 155.25341 71.125847 155.15935 75.931641 151.11719 C 81.898581 146.09835 89.473986 141.37349 96.908203 138.03125 C 131.13589 122.64347 171.11047 130.20115 198.15039 157.17383 C 201.42757 160.44285 206.45693 166.16499 207.44922 167.75391 C 207.67195 168.11069 207.94366 168.40234 208.05273 168.40234 C 208.16181 168.40234 212.98421 165.40984 218.76953 161.75391 C 224.55485 158.09793 229.32951 154.92294 229.38086 154.69727 C 229.56247 153.89899 222.81126 145.43224 218.25781 140.74805 C 203.21184 125.27005 184.87039 115.91752 163.30469 112.73047 C 160.40368 112.30174 155.35969 112.08864 150.35352 112.08789 z M 3.9472656 135.04297 L 4.0371094 147.68359 L 4.1269531 160.32422 L 77.251953 206.53125 C 117.47146 231.94532 150.45529 252.73839 150.54883 252.73828 C 150.64237 252.73817 183.62619 231.94536 223.8457 206.53125 L 296.97266 160.32227 L 297.06055 147.68359 L 297.15039 135.04297 L 295.36133 136.18164 C 294.37694 136.80783 261.39149 157.64683 222.06055 182.49023 L 150.54883 227.66016 L 79.039062 182.49023 C 39.70812 157.64683 6.7226698 136.80783 5.7382812 136.18164 L 3.9472656 135.04297 z M 150.69922 154.51562 C 147.06182 154.5409 143.11978 154.82473 140.68555 155.30469 C 128.77953 157.65276 117.66577 164.22974 110.03516 173.44336 C 108.56112 175.22318 107.41562 176.7379 107.48828 176.81055 C 107.56096 176.88311 108.43887 176.41981 109.44141 175.7793 C 114.32781 172.65718 120.50673 170.21381 126.0293 169.2207 C 129.83867 168.53566 137.25948 168.53791 141.08203 169.22461 C 152.06411 171.199 162.67105 177.73317 170.60547 187.41016 C 172.0028 189.11438 173.17303 190.50977 173.20508 190.50977 C 173.2372 190.50977 177.82481 187.62567 183.40039 184.10156 C 188.97598 180.57746 193.59095 177.53968 193.6543 177.34961 C 193.82445 176.83915 191.10123 173.35509 188.25 170.43359 C 179.71907 161.69249 168.54368 156.17294 156.52539 154.76367 C 154.95363 154.57936 152.88166 154.50046 150.69922 154.51562 z "
       style="opacity:1;fill:#ffffff;fill-opacity:1;fill-rule:evenodd;stroke:#ffffff;stroke-width:0;stroke-linecap:square;stroke-linejoin:round;stroke-miterlimit:4;stroke-dasharray:none;stroke-opacity:1;paint-order:normal" />
  </g>
</svg>
